build/images/jury/line.svg

<svg width="937" height="37" viewBox="0 0 937 37" fill="none" xmlns="http://www.w3.org/2000/svg">
<path d="M340.5 4H280.5L250.5 34H7" stroke="white"/>
<circle cx="3.5" cy="33.5" r="3.5" fill="white"/>
<path d="M597 4H657L687 34H930.5" stroke="white"/>
<circle cx="933.5" cy="33.5" r="3.5" fill="white"/>
<g clip-path="url(#clip0_1073_2055)">
<path d="M349.579 5.78678C348.828 6.56395 347.821 6.99872 346.773 6.9985H344L349.21 1.46015C349.645 0.997133 350.162 0.629857 350.73 0.379318C351.299 0.128779 351.909 -0.000109598 352.524 2.01165e-05H355.159L349.579 5.78678ZM362.354 2.01165e-05H359.719C359.103 1.40894e-05 358.494 0.128959 357.925 0.379491C357.356 0.630023 356.84 0.997234 356.404 1.46015L351.193 7.00002H353.967C355.014 7.00039 356.021 6.5656 356.772 5.78829L362.354 2.01165e-05ZM369.547 2.01165e-05H366.912C366.297 1.40894e-05 365.687 0.128959 365.118 0.379491C364.55 0.630023 364.033 0.997234 363.598 1.46015L358.386 7.00002H361.157C362.205 7.00039 363.211 6.5656 363.962 5.78829L369.547 2.01165e-05ZM376.74 2.01165e-05H374.105C373.49 1.40894e-05 372.88 0.128959 372.311 0.379491C371.743 0.630023 371.226 0.997234 370.791 1.46015L365.58 7.00002H368.352C369.4 7.00039 370.407 6.5656 371.158 5.78829L376.74 2.01165e-05ZM383.934 2.01165e-05H381.299C380.683 -0.000109598 380.073 0.128779 379.505 0.379318C378.936 0.629857 378.419 0.997133 377.984 1.46015L372.768 7.00002H375.54C376.588 7.00039 377.595 6.5656 378.346 5.78829L383.934 2.01165e-05ZM391.127 2.01165e-05H388.492C387.876 -0.000109598 387.267 0.128779 386.698 0.379318C386.129 0.629857 385.612 0.997133 385.177 1.46015L379.96 7.00002H382.732C383.78 7.00039 384.787 6.5656 385.538 5.78829L391.127 2.01165e-05ZM398.32 2.01165e-05H395.685C395.067 -0.00180488 394.455 0.126261 393.884 0.376848C393.314 0.627435 392.795 0.995597 392.358 1.46015L387.151 7.00002H389.925C390.973 7.00023 391.979 6.56546 392.73 5.78829L398.32 2.01165e-05ZM405.513 2.01165e-05H402.878C402.261 -0.00180488 401.649 0.126261 401.078 0.376848C400.507 0.627435 399.988 0.995597 399.551 1.46015L394.343 7.00002H397.116C398.164 7.00023 399.171 6.56546 399.922 5.78829L405.513 2.01165e-05ZM412.706 2.01165e-05H410.071C409.454 -0.00168029 408.842 0.126442 408.271 0.377022C407.7 0.627602 407.181 0.995699 406.745 1.46015L401.535 7.00002H404.308C405.356 7.00023 406.363 6.56546 407.114 5.78829L412.706 2.01165e-05ZM419.9 2.01165e-05H417.265C416.647 -0.00184645 416.035 0.1262 415.464 0.37679C414.893 0.627379 414.374 0.995564 413.938 1.46015L408.727 7.00002H411.5C412.548 7.00039 413.555 6.5656 414.305 5.78829L419.9 2.01165e-05ZM427.093 2.01165e-05H424.458C423.84 -0.00184645 423.228 0.1262 422.657 0.37679C422.086 0.627379 421.568 0.995564 421.131 1.46015L415.921 7.00002H418.694C419.742 7.00039 420.748 6.5656 421.499 5.78829L427.093 2.01165e-05ZM434.286 2.01165e-05H431.651C431.033 -0.00180488 430.421 0.126261 429.851 0.376848C429.28 0.627435 428.761 0.995597 428.324 1.46015L423.111 7.00002H425.884C426.931 7.00039 427.938 6.5656 428.689 5.78829L434.286 2.01165e-05ZM441.479 2.01165e-05H438.844C438.229 -0.000109598 437.619 0.128779 437.05 0.379318C436.481 0.629857 435.965 0.997133 435.53 1.46015L430.32 7.00002H433.093C434.141 7.00044 435.147 6.56562 435.898 5.78829L441.479 2.01165e-05ZM448.672 2.01165e-05H446.037C445.422 -0.000109598 444.812 0.128779 444.243 0.379318C443.675 0.629857 443.158 0.997133 442.723 1.46015L437.513 7.00002H440.286C441.334 7.00023 442.341 6.56546 443.092 5.78829L448.672 2.01165e-05ZM455.866 2.01165e-05H453.231C452.615 -2.71252e-05 452.005 0.128899 451.437 0.379433C450.868 0.629968 450.351 0.9972 449.916 1.46015L444.706 7.00002H447.48C448.527 7.00023 449.534 6.56546 450.285 5.78829L455.866 2.01165e-05ZM463.059 2.01165e-05H460.424C459.808 1.40894e-05 459.199 0.128959 458.63 0.379491C458.061 0.630023 457.544 0.997234 457.109 1.46015L451.899 7.00002H454.673C455.721 7.00023 456.727 6.56546 457.478 5.78829L463.059 2.01165e-05ZM470.252 2.01165e-05H467.617C467.001 -5.13278e-05 466.392 0.128867 465.823 0.379405C465.255 0.629944 464.738 0.99719 464.303 1.46015L459.07 7.00002H461.843C462.891 7.00039 463.898 6.5656 464.649 5.78829L470.252 2.01165e-05ZM477.445 2.01165e-05H474.81C474.195 -0.000109598 473.585 0.128779 473.016 0.379318C472.447 0.629857 471.931 0.997133 471.496 1.46015L466.285 7.00002H469.058C470.106 7.00039 471.113 6.5656 471.864 5.78829L477.445 2.01165e-05ZM484.639 2.01165e-05H482.003C481.388 -0.000109598 480.778 0.128779 480.209 0.379318C479.641 0.629857 479.124 0.997133 478.689 1.46015L473.479 7.00002H476.252C477.3 7.00039 478.306 6.5656 479.057 5.78829L484.639 2.01165e-05ZM491.832 2.01165e-05H489.197C488.581 -0.000109598 487.971 0.128779 487.403 0.379318C486.834 0.629857 486.317 0.997133 485.882 1.46015L480.672 7.00002H483.446C484.493 7.00044 485.5 6.56562 486.25 5.78829L491.832 2.01165e-05ZM499.025 2.01165e-05H496.39C495.774 -2.71252e-05 495.165 0.128899 494.596 0.379433C494.027 0.629968 493.51 0.9972 493.075 1.46015L487.865 7.00002H490.639C491.687 7.00023 492.693 6.56546 493.444 5.78829L499.025 2.01165e-05Z" fill="white"/>
</g>
<g clip-path="url(#clip1_1073_2055)">
<path d="M501.579 5.78678C500.828 6.56395 499.821 6.99872 498.773 6.9985H496L501.21 1.46015C501.645 0.997133 502.162 0.629857 502.73 0.379318C503.299 0.128779 503.909 -0.000109598 504.524 2.01165e-05H507.159L501.579 5.78678ZM514.354 2.01165e-05H511.719C511.103 1.40894e-05 510.494 0.128959 509.925 0.379491C509.356 0.630023 508.84 0.997234 508.404 1.46015L503.193 7.00002H505.967C507.014 7.00039 508.021 6.5656 508.772 5.78829L514.354 2.01165e-05ZM521.547 2.01165e-05H518.912C518.297 1.40894e-05 517.687 0.128959 517.118 0.379491C516.55 0.630023 516.033 0.997234 515.598 1.46015L510.386 7.00002H513.157C514.205 7.00039 515.211 6.5656 515.962 5.78829L521.547 2.01165e-05ZM528.74 2.01165e-05H526.105C525.49 1.40894e-05 524.88 0.128959 524.311 0.379491C523.743 0.630023 523.226 0.997234 522.791 1.46015L517.58 7.00002H520.352C521.4 7.00039 522.407 6.5656 523.158 5.78829L528.74 2.01165e-05ZM535.934 2.01165e-05H533.299C532.683 -0.000109598 532.073 0.128779 531.505 0.379318C530.936 0.629857 530.419 0.997133 529.984 1.46015L524.768 7.00002H527.54C528.588 7.00039 529.595 6.5656 530.346 5.78829L535.934 2.01165e-05ZM543.127 2.01165e-05H540.492C539.876 -0.000109598 539.267 0.128779 538.698 0.379318C538.129 0.629857 537.612 0.997133 537.177 1.46015L531.96 7.00002H534.732C535.78 7.00039 536.787 6.5656 537.538 5.78829L543.127 2.01165e-05ZM550.32 2.01165e-05H547.685C547.067 -0.00180488 546.455 0.126261 545.884 0.376848C545.314 0.627435 544.795 0.995597 544.358 1.46015L539.151 7.00002H541.925C542.973 7.00023 543.979 6.56546 544.73 5.78829L550.32 2.01165e-05ZM557.513 2.01165e-05H554.878C554.261 -0.00180488 553.649 0.126261 553.078 0.376848C552.507 0.627435 551.988 0.995597 551.551 1.46015L546.343 7.00002H549.116C550.164 7.00023 551.171 6.56546 551.922 5.78829L557.513 2.01165e-05ZM564.706 2.01165e-05H562.071C561.454 -0.00168029 560.842 0.126442 560.271 0.377022C559.7 0.627602 559.181 0.995699 558.745 1.46015L553.535 7.00002H556.308C557.356 7.00023 558.363 6.56546 559.114 5.78829L564.706 2.01165e-05ZM571.9 2.01165e-05H569.265C568.647 -0.00184645 568.035 0.1262 567.464 0.37679C566.893 0.627379 566.374 0.995564 565.938 1.46015L560.727 7.00002H563.5C564.548 7.00039 565.555 6.5656 566.305 5.78829L571.9 2.01165e-05ZM579.093 2.01165e-05H576.458C575.84 -0.00184645 575.228 0.1262 574.657 0.37679C574.086 0.627379 573.568 0.995564 573.131 1.46015L567.921 7.00002H570.694C571.742 7.00039 572.748 6.5656 573.499 5.78829L579.093 2.01165e-05ZM586.286 2.01165e-05H583.651C583.033 -0.00180488 582.421 0.126261 581.851 0.376848C581.28 0.627435 580.761 0.995597 580.324 1.46015L575.111 7.00002H577.884C578.931 7.00039 579.938 6.5656 580.689 5.78829L586.286 2.01165e-05ZM593.479 2.01165e-05H590.844C590.229 -0.000109598 589.619 0.128779 589.05 0.379318C588.481 0.629857 587.965 0.997133 587.53 1.46015L582.32 7.00002H585.093C586.141 7.00044 587.147 6.56562 587.898 5.78829L593.479 2.01165e-05Z" fill="white"/>
</g>
<defs>
<clipPath id="clip0_1073_2055">
<rect width="155" height="7" fill="white" transform="translate(344)"/>
</clipPath>
<clipPath id="clip1_1073_2055">
<rect width="99" height="7" fill="white" transform="translate(496)"/>
</clipPath>
</defs>
</svg>

<svg width="937" height="37" fill="none" xmlns="http://www.w3.org/2000/svg"><path d="M340.5 4h-60l-30 30H7" stroke="#fff"/><circle cx="3.5" cy="33.5" r="3.5" fill="#fff"/><path d="M597 4h60l30 30h243.5" stroke="#fff"/><circle cx="933.5" cy="33.5" r="3.5" fill="#fff"/><g clip-path="url(#clip0_1073_2055)"><path d="M349.579 5.787a3.9 3.9 0 01-2.806 1.212H344l5.21-5.539a4.68 4.68 0 011.52-1.08 4.447 4.447 0 011.794-.38h2.635l-5.58 5.787zM362.354 0h-2.635c-.616 0-1.225.129-1.794.38a4.685 4.685 0 00-1.521 1.08L351.193 7h2.774a3.9 3.9 0 002.805-1.212L362.354 0zm7.193 0h-2.635a4.45 4.45 0 00-1.794.38 4.681 4.681 0 00-1.52 1.08L358.386 7h2.771a3.898 3.898 0 002.805-1.212L369.547 0zm7.193 0h-2.635a4.45 4.45 0 00-1.794.38 4.681 4.681 0 00-1.52 1.08L365.58 7h2.772a3.9 3.9 0 002.806-1.212L376.74 0zm7.194 0h-2.635a4.44 4.44 0 00-1.794.38 4.674 4.674 0 00-1.521 1.08L372.768 7h2.772a3.9 3.9 0 002.806-1.212L383.934 0zm7.193 0h-2.635c-.616 0-1.225.129-1.794.38a4.674 4.674 0 00-1.521 1.08L379.96 7h2.772a3.9 3.9 0 002.806-1.212L391.127 0zm7.193 0h-2.635a4.445 4.445 0 00-1.801.377 4.69 4.69 0 00-1.526 1.083L387.151 7h2.774a3.899 3.899 0 002.805-1.212L398.32 0zm7.193 0h-2.635a4.443 4.443 0 00-1.8.377c-.571.25-1.09.619-1.527 1.083L394.343 7h2.773a3.901 3.901 0 002.806-1.212L405.513 0zm7.193 0h-2.635a4.446 4.446 0 00-1.8.377 4.67 4.67 0 00-1.526 1.083L401.535 7h2.773a3.901 3.901 0 002.806-1.212L412.706 0zm7.194 0h-2.635a4.444 4.444 0 00-1.801.377c-.571.25-1.09.619-1.526 1.083L408.727 7h2.773a3.896 3.896 0 002.805-1.212L419.9 0zm7.193 0h-2.635a4.444 4.444 0 00-1.801.377 4.679 4.679 0 00-1.526 1.083L415.921 7h2.773a3.898 3.898 0 002.805-1.212L427.093 0zm7.193 0h-2.635a4.437 4.437 0 00-1.8.377c-.571.25-1.09.619-1.527 1.083L423.111 7h2.773a3.9 3.9 0 002.805-1.212L434.286 0zm7.193 0h-2.635c-.615 0-1.225.129-1.794.38a4.67 4.67 0 00-1.52 1.08L430.32 7h2.773a3.897 3.897 0 002.805-1.212L441.479 0zm7.193 0h-2.635c-.615 0-1.225.129-1.794.38a4.68 4.68 0 00-1.52 1.08L437.513 7h2.773a3.901 3.901 0 002.806-1.212L448.672 0zm7.194 0h-2.635c-.616 0-1.226.129-1.794.38a4.674 4.674 0 00-1.521 1.08L444.706 7h2.774a3.9 3.9 0 002.805-1.212L455.866 0zm7.193 0h-2.635c-.616 0-1.225.129-1.794.38a4.675 4.675 0 00-1.521 1.08L451.899 7h2.774a3.899 3.899 0 002.805-1.212L463.059 0zm7.193 0h-2.635c-.616 0-1.225.129-1.794.38a4.681 4.681 0 00-1.52 1.08L459.07 7h2.773a3.9 3.9 0 002.806-1.212L470.252 0zm7.193 0h-2.635c-.615 0-1.225.129-1.794.38a4.67 4.67 0 00-1.52 1.08L466.285 7h2.773a3.9 3.9 0 002.806-1.212L477.445 0zm7.194 0h-2.636c-.615 0-1.225.129-1.794.38a4.68 4.68 0 00-1.52 1.08L473.479 7h2.773a3.898 3.898 0 002.805-1.212L484.639 0zm7.193 0h-2.635a4.44 4.44 0 00-1.794.38 4.674 4.674 0 00-1.521 1.08L480.672 7h2.774a3.895 3.895 0 002.804-1.212L491.832 0zm7.193 0h-2.635c-.616 0-1.225.129-1.794.38a4.674 4.674 0 00-1.521 1.08L487.865 7h2.774a3.899 3.899 0 002.805-1.212L499.025 0z" fill="#fff"/></g><g clip-path="url(#clip1_1073_2055)"><path d="M501.579 5.787a3.9 3.9 0 01-2.806 1.212H496l5.21-5.539a4.68 4.68 0 011.52-1.08 4.447 4.447 0 011.794-.38h2.635l-5.58 5.787zM514.354 0h-2.635c-.616 0-1.225.129-1.794.38a4.685 4.685 0 00-1.521 1.08L503.193 7h2.774a3.9 3.9 0 002.805-1.212L514.354 0zm7.193 0h-2.635a4.45 4.45 0 00-1.794.38 4.681 4.681 0 00-1.52 1.08L510.386 7h2.771a3.898 3.898 0 002.805-1.212L521.547 0zm7.193 0h-2.635a4.45 4.45 0 00-1.794.38 4.681 4.681 0 00-1.52 1.08L517.58 7h2.772a3.9 3.9 0 002.806-1.212L528.74 0zm7.194 0h-2.635a4.44 4.44 0 00-1.794.38 4.674 4.674 0 00-1.521 1.08L524.768 7h2.772a3.9 3.9 0 002.806-1.212L535.934 0zm7.193 0h-2.635c-.616 0-1.225.129-1.794.38a4.674 4.674 0 00-1.521 1.08L531.96 7h2.772a3.9 3.9 0 002.806-1.212L543.127 0zm7.193 0h-2.635a4.445 4.445 0 00-1.801.377 4.69 4.69 0 00-1.526 1.083L539.151 7h2.774a3.899 3.899 0 002.805-1.212L550.32 0zm7.193 0h-2.635a4.443 4.443 0 00-1.8.377c-.571.25-1.09.619-1.527 1.083L546.343 7h2.773a3.901 3.901 0 002.806-1.212L557.513 0zm7.193 0h-2.635a4.446 4.446 0 00-1.8.377 4.67 4.67 0 00-1.526 1.083L553.535 7h2.773a3.901 3.901 0 002.806-1.212L564.706 0zm7.194 0h-2.635a4.444 4.444 0 00-1.801.377c-.571.25-1.09.619-1.526 1.083L560.727 7h2.773a3.896 3.896 0 002.805-1.212L571.9 0zm7.193 0h-2.635a4.444 4.444 0 00-1.801.377 4.679 4.679 0 00-1.526 1.083L567.921 7h2.773a3.898 3.898 0 002.805-1.212L579.093 0zm7.193 0h-2.635a4.437 4.437 0 00-1.8.377c-.571.25-1.09.619-1.527 1.083L575.111 7h2.773a3.9 3.9 0 002.805-1.212L586.286 0zm7.193 0h-2.635c-.615 0-1.225.129-1.794.38a4.67 4.67 0 00-1.52 1.08L582.32 7h2.773a3.897 3.897 0 002.805-1.212L593.479 0z" fill="#fff"/></g><defs><clipPath id="clip0_1073_2055"><path fill="#fff" transform="translate(344)" d="M0 0h155v7H0z"/></clipPath><clipPath id="clip1_1073_2055"><path fill="#fff" transform="translate(496)" d="M0 0h99v7H0z"/></clipPath></defs></svg>
